X:1
T:Title
%%score { ( 1 3 ) | ( 2 4 ) }
L:1/8
Q:1/4=100
M:6/8
K:G
V:1 treble nm="Grand Piano"
V:3 treble 
V:2 treble 
V:4 treble 
V:1
 B>AG DGB | [FA]>[DG][FA] B3 | d>dd BAG | G>[^CGA][CGB] [DFA]3 | B>AG DGB | [FA]>[DG][FA] [GB]3 | %6
w: William~Kirkpatrick * * * * *||||||
 [Ge]>[Ge][Ge] d<BG | [GB]<[GB][CFA] [B,DG]3 | .[Bd]6 | [GB]6 | .[Ac]6 | [FA]6 | .[GB]6 | .d6 | %14
w: ||||||||
[M:13/16] [GB][GB] z [GB][GB]3/2[CFA] |[M:3/4] [G,DG]6 |] %16
w: ||
V:2
 [G,DG]>[G,CD][G,B,D] [G,B,][G,B,D][G,DG] | [D,C]>[D,B,][D,D][K:treble] [G,DG]3 | %2
 [G,B,G]>[G,B,G][G,B,G] [G,DG][K:bass][G,CD][G,B,D] | [E,^CE]>E,A,, D,3 | %4
 [G,DG]>[G,CD][G,B,D] [G,B,][G,B,D][G,DG] | [D,C]>[D,B,][D,D] [G,D]3 | %6
 [C,C]>[C,C][C,C][K:treble] [G,B,G]<[G,DG][K:bass][E,^C] | [D,D]<[D,D]D, G,,3 | %8
 G,>G,G, G,[K:treble]_B=B | G,>G,G, G,2 B | D,>D,D, D,[K:treble]^GA | D,>D,D, .D,3 | %12
 G,>G,G, G,[K:treble][G,EG][G,CG] | .G6[K:bass] |[M:13/16] [D,D][D,D] z [D,D][D,D]3/2D, | %15
[M:3/4] G,,4 z2 |] %16
V:3
 x6 | x6 | x6 | x6 | x6 | x6 | x6 | x6 | D>DD D^cd | D>DD D2 d | D>DD DBc | D>DD .D3 | D>DD Dce | %13
 z z/ B,/B, B,BG |[M:13/16] x13/2 |[M:3/4] B,4 z2 |] %16
V:4
 x6 | x3[K:treble] x3 | x4[K:bass] x2 | x6 | x6 | x6 | x3[K:treble] x2[K:bass] x | x6 | %8
 x4[K:treble] x2 | x6 | x4[K:treble] x2 | x6 | x4[K:treble] x2 | %13
 [G,B,]>G,G, G,[G,DG][K:bass][E,^C] |[M:13/16] x13/2 |[M:3/4] x6 |] %16

